local/share/icons/dracula-icons-main/scalable/apps/crystal.svg

<svg width="64" height="64" version="1.1" viewBox="0 0 16.933 16.933" xmlns="http://www.w3.org/2000/svg">
 <circle cx="8.4665" cy="8.46" r="7.1436" fill="#f2f2f2" style="paint-order:stroke markers fill"/>
 <g fill-rule="evenodd">
  <path d="m12.695 9.574-1.116-4.184c0-0.012313-0.01224-0.024627-0.03679-0.036947l-4.1817-1.1199c-0.012239 0-0.036713 0-0.049029 0.012315l-3.0656 3.0642c-0.012315 0.012313-0.012315 0.024627-0.012315 0.04926l1.116 4.184c0 0.01231 0.012238 0.02463 0.036791 0.03695l4.1817 1.1199c0.01224 0 0.036713 0 0.049027-0.01231l3.0656-3.0643c0.01231-0.02463 0.02463-0.03695 0.01231-0.04926zm-4.0958-3.2858-1.1037 4.1102c0 0.01231-0.012239 0.01231-0.024477 0l-2.9922-3.0027c-0.012238-0.012313 0-0.012313 0-0.024633l4.1081-1.1075c0 0.012313 0.012314 0.012313 0.012314 0.024633z" fill="#4d4d4d" stroke-width=".26458" style="isolation:isolate"/>
  <path transform="scale(.26458)" d="m46.113 29.186-16.236 4.3516-1.5488 5.7656c0 0.046527-0.045542 0.046527-0.091797 0l-4.1895-4.2051-5.6973 1.5273 1.8691 7.002c0 0.046527 0.045871 0.09406 0.13867 0.14062l15.805 4.2324c0.046263 0 0.139-3.48e-4 0.18555-0.046875l11.586-11.582c0.046527-0.093092 0.093439-0.13902 0.046875-0.18555l-1.8672-7z" opacity=".25" style="paint-order:stroke fill markers"/>
  <path transform="scale(.26458)" d="m27.818 16c-0.013785 0-0.035127 0.002674-0.054687 0.003906l2.2324 8.332 2.457-0.66211c0 0.046538 0.046875 0.047185 0.046875 0.09375l-1.3301 4.9492 5.1582 19.246c0.005891-0.003958 0.014572-0.004808 0.019531-0.009766l11.586-11.582c0.046527-0.093092 0.093439-0.13902 0.046875-0.18555l-4.2168-15.812c0-0.046538-0.047836-0.09406-0.14062-0.14062l-15.805-4.2324z" opacity=".35" style="paint-order:stroke fill markers"/>
 </g>
</svg>

<?xml version="1.0" encoding="UTF-8"?>
<svg xmlns="http://www.w3.org/2000/svg" xmlns:xlink="http://www.w3.org/1999/xlink" width="64" height="64" viewBox="0 0 64 64">
<defs>
<filter id="filter-remove-color" x="0%" y="0%" width="100%" height="100%">
<feColorMatrix color-interpolation-filters="sRGB" values="0 0 0 0 1 0 0 0 0 1 0 0 0 0 1 0 0 0 1 0" />
</filter>
<clipPath id="clip-0">
<rect x="0" y="0" width="17" height="17"/>
</clipPath>
<g id="source-5607" clip-path="url(#clip-0)">
<path fill-rule="evenodd" fill="rgb(30.196078%, 30.196078%, 30.196078%)" fill-opacity="1" d="M 12.695312 9.574219 L 11.578125 5.390625 C 11.578125 5.378906 11.566406 5.367188 11.542969 5.351562 L 7.359375 4.234375 C 7.347656 4.234375 7.324219 4.234375 7.3125 4.246094 L 4.246094 7.308594 C 4.234375 7.320312 4.234375 7.335938 4.234375 7.359375 L 5.347656 11.542969 C 5.347656 11.554688 5.363281 11.566406 5.386719 11.578125 L 9.566406 12.699219 C 9.582031 12.699219 9.605469 12.699219 9.617188 12.6875 L 12.683594 9.625 C 12.695312 9.597656 12.707031 9.585938 12.695312 9.574219 Z M 8.597656 6.289062 L 7.496094 10.398438 C 7.496094 10.410156 7.484375 10.410156 7.472656 10.398438 L 4.480469 7.394531 C 4.464844 7.382812 4.480469 7.382812 4.480469 7.371094 L 8.585938 6.261719 C 8.585938 6.277344 8.597656 6.277344 8.597656 6.289062 Z M 8.597656 6.289062 "/>
</g>
<mask id="mask-0">
<g filter="url(#filter-remove-color)">
<rect x="-6.4" y="-6.4" width="76.8" height="76.8" fill="rgb(0%, 0%, 0%)" fill-opacity="0.25"/>
</g>
</mask>
<clipPath id="clip-1">
<rect x="0" y="0" width="17" height="17"/>
</clipPath>
<g id="source-5611" clip-path="url(#clip-1)">
<path fill-rule="evenodd" fill="rgb(0%, 0%, 0%)" fill-opacity="1" d="M 12.199219 7.722656 L 7.90625 8.875 L 7.496094 10.398438 C 7.496094 10.410156 7.484375 10.410156 7.472656 10.398438 L 6.363281 9.285156 L 4.855469 9.691406 L 5.347656 11.542969 C 5.347656 11.554688 5.363281 11.566406 5.386719 11.582031 L 9.566406 12.699219 C 9.582031 12.699219 9.605469 12.699219 9.617188 12.6875 L 12.683594 9.625 C 12.695312 9.597656 12.707031 9.585938 12.695312 9.574219 Z M 12.199219 7.722656 "/>
</g>
<mask id="mask-1">
<g filter="url(#filter-remove-color)">
<rect x="-6.4" y="-6.4" width="76.8" height="76.8" fill="rgb(0%, 0%, 0%)" fill-opacity="0.35"/>
</g>
</mask>
<clipPath id="clip-2">
<rect x="0" y="0" width="17" height="17"/>
</clipPath>
<g id="source-5615" clip-path="url(#clip-2)">
<path fill-rule="evenodd" fill="rgb(0%, 0%, 0%)" fill-opacity="1" d="M 7.359375 4.234375 C 7.355469 4.234375 7.351562 4.234375 7.34375 4.234375 L 7.9375 6.4375 L 8.585938 6.261719 C 8.585938 6.277344 8.597656 6.277344 8.597656 6.289062 L 8.246094 7.597656 L 9.613281 12.691406 C 9.613281 12.6875 9.617188 12.6875 9.617188 12.6875 L 12.683594 9.621094 C 12.695312 9.597656 12.707031 9.585938 12.695312 9.574219 L 11.578125 5.390625 C 11.578125 5.378906 11.566406 5.367188 11.542969 5.351562 Z M 7.359375 4.234375 "/>
</g>
</defs>
<path fill-rule="nonzero" fill="rgb(94.901961%, 94.901961%, 94.901961%)" fill-opacity="1" d="M 15.609375 8.460938 C 15.609375 12.40625 12.410156 15.605469 8.464844 15.605469 C 4.519531 15.605469 1.324219 12.40625 1.324219 8.460938 C 1.324219 4.515625 4.519531 1.316406 8.464844 1.316406 C 12.410156 1.316406 15.609375 4.515625 15.609375 8.460938 Z M 15.609375 8.460938 "/>
<use xlink:href="#source-5607"/>
<g mask="url(#mask-0)">
<use xlink:href="#source-5611"/>
</g>
<g mask="url(#mask-1)">
<use xlink:href="#source-5615"/>
</g>
</svg>
